!!!COM: Bach, Johann Sebastian (disputed)
!!!OTL: Fuga
!!!OMV: 2
!!!SCT: BWV 536
!!!SCA: Thematisches-systematisches Verzeichnis der musikalischen Werke von Johann Sebastian Bach (Schmieder 1990)
**kern	**kern	**kern	**kern
*MM60	*MM60	*MM60	*MM60
*k[f#c#g#]	*k[f#c#g#]	*k[f#c#g#]	*k[f#c#g#]
*M3/4	*M3/4	*M3/4	*M3/4
*tb32	*tb32	*tb32	*tb32
=1	=1	=1	=1
2.r	2e	2.r	2.r
.	4f#	.	.
=2	=2	=2	=2
2.r	4e	2.r	2.r
.	2d	.	.
=3	=3	=3	=3
2.r	2c#	2.r	2.r
.	4e	.	.
=4	=4	=4	=4
2.r	4d	2.r	2.r
.	2c#	.	.
=5	=5	=5	=5
2.r	2B	2.r	2.r
.	4e	.	.
=6	=6	=6	=6
2.r	4A	2.r	2.r
.	[2d	.	.
=7	=7	=7	=7
2.r	4d]	2.r	2.r
.	8c#	.	.
.	8B	.	.
.	4c#	.	.
=8	=8	=8	=8
2.r	4f#	2.r	2.r
.	2B	.	.
=9	=9	=9	=9
2.r	4A	4r	2.r
.	4r	4a	.
.	4a	4cc#	.
=10	=10	=10	=10
2.r	4g#	4b	2.r
.	4c#	2a	.
.	[4f#	.	.
=11	=11	=11	=11
2.r	4f#]	2g#	2.r
.	4e	.	.
.	4d#	4b	.
=12	=12	=12	=12
2.r	4c#	4a	2.r
.	4B	2g#	.
.	[4e	.	.
=13	=13	=13	=13
2.r	4e]	2f#	2.r
.	[2d#	.	.
.	.	4b	.
=14	=14	=14	=14
2.r	4d#]	4e	2.r
.	4c#	[2a	.
.	4f#	.	.
=15	=15	=15	=15
2.r	4B	4a]	2.r
.	[2e	8g#	.
.	.	8f#	.
.	.	4g#	.
=16	=16	=16	=16
2.r	2e]	4cc#	2.r
.	.	2f#	.
.	4d#	.	.
=17	=17	=17	=17
2.r	[2.e	4e	2.r
.	.	4g#	.
.	.	4cc#	.
=18	=18	=18	=18
2.r	4e]	4f#	2.r
.	4d	[2b	.
.	4B	.	.
=19	=19	=19	=19
2.r	2c#	4b]	2.r
.	.	4e	.
.	4A	[4a	.
=20	=20	=20	=20
2.r	4d	4a]	2.r
.	4B	2g#	.
.	4e	.	.
=21	=21	=21	=21
2.r	4.c#	2a	4r
.	.	.	4ee
.	8c#	.	.
.	4d	4dd	4ff#
=22	=22	=22	=22
2.r	4.A	4cc#	4ee
.	.	4f#	2dd
.	8B	.	.
.	8A	[4b	.
.	8G#	.	.
=23	=23	=23	=23
2.r	4.A	4b]	2cc#
.	.	4e	.
.	8B	.	.
.	[4c#	4g	4ee
=24	=24	=24	=24
2.r	8c#]	4f#	4dd
.	8B	.	.
.	4.c#	4e	2cc#
.	.	[4a	.
.	8d	.	.
=25	=25	=25	=25
2.r	4.e	4a]	2b
.	.	[2g#	.
.	8d	.	.
.	8e	.	4ee
.	8c#	.	.
=26	=26	=26	=26
2.r	8f#	4g#]	4a
.	8e	.	.
.	8d	4f#	[2dd
.	8c#	.	.
.	8B	4b	.
.	8A	.	.
=27	=27	=27	=27
2.r	4G#	4e	4dd]
.	8A	[2a	8cc#
.	8G#	.	8b
.	8F#	.	4cc#
.	8E	.	.
=28	=28	=28	=28
2.r	4D	2a]	4ff#
.	4.E	.	2b
.	.	[4g#	.
.	8C#	.	.
=29	=29	=29	=29
2.r	4.F#	4g#]	2a
.	.	[2f#	.
.	8E	.	.
.	4D#	.	8b
.	.	.	8a
=30	=30	=30	=30
2.r	4.E	4f#]	4.g#
.	.	[2e	.
.	8F#	.	8a
.	8G#	.	4b
.	8E	.	.
=31	=31	=31	=31
2.r	4.A	4e]	4.cc#
.	.	[2a	.
.	8B	.	8dd#
.	4c#	.	8ee
.	.	.	8cc#
=32	=32	=32	=32
2.r	4d#	4a]	4ff#
.	2e	8g#	4b
.	.	8f#	.
.	.	8g#	[4ee
.	.	8a	.
=33	=33	=33	=33
2B	2f#	4.b	4ee]
.	.	.	4dd#
.	.	8a	.
4c#	4e	8g#	4ee
.	.	8a	.
=34	=34	=34	=34
4B	4.f#	4b	4dd#
2A	.	4r	4cc#
.	8e	.	.
.	8d#	4f#	[4ff#
.	8c#	.	.
=35	=35	=35	=35
2G#	2B	4.b	4ff#]
.	.	.	4ee
.	.	8g#	.
4B	4B	8f#	4dd#
.	.	8g#	.
=36	=36	=36	=36
4A	4.e	4a	4cc#
2G#	.	4r	4b
.	8d#	.	.
.	8c#	4e	[4ee
.	8B	.	.
=37	=37	=37	=37
2F#	4A	4.a	4ee]
.	2f#	.	[2dd#
.	.	8g#	.
4B	.	8f#	.
.	.	8a	.
=38	=38	=38	=38
4E	2e	4g#	4dd#]
[2A	.	8a	4cc#
.	.	8g#	.
.	4c#	8f#	4ff#
.	.	8e	.
=39	=39	=39	=39
4A]	8d#	4f#	4b
.	8c#	.	.
8G#	8B	4.b	[2ee
8F#	8A	.	.
4G#	4B	.	.
.	.	8a	.
=40	=40	=40	=40
4c#	8e	4g#	2ee]
.	8d#	.	.
2F#	8c#	[2a	.
.	8B	.	.
.	8A	.	4dd#
.	8B	.	.
=41	=41	=41	=41
2E	8c#	2a]	4.ee
.	8d	.	.
.	4B	.	.
.	.	.	8dd
4E	4e	[4g#	8cc#
.	.	.	8b
=42	=42	=42	=42
4.F#	4c#	8g#]	4.a
.	.	8g#	.
.	4r	[2f#	.
8A	.	.	8a
8D	4r	.	8b
8F#	.	.	8cc#
=43	=43	=43	=43
4.BB	2.r	8f#]	[2.dd
.	.	8f#	.
.	.	8g#	.
8D	.	8a	.
8GG#	.	4b	.
8BB	.	.	.
=44	=44	=44	=44
4AA	2.r	4e	8dd]
.	.	.	8cc#
2DD	.	8f#	8dd
.	.	8e	8cc#
.	.	8d	8b
.	.	8c#	8a
=45	=45	=45	=45
4EE	2.r	8B	4g#
.	.	8e	.
4E	.	8E	4r
.	.	8e	.
4F#	.	8A	4r
.	.	8d	.
=46	=46	=46	=46
4E	2.r	8G#	2.r
.	.	8c#	.
2D	.	8F#	.
.	.	8B	.
.	.	8A	.
.	.	8B	.
=47	=47	=47	=47
2C#	2.r	8c#	4r
.	.	8e	.
.	.	8A	4ee
.	.	8a	.
4D	.	8d	4ff#
.	.	8a	.
=48	=48	=48	=48
4C#	2.r	8A	4ee
.	.	8a	.
2BB	.	8B	2dd
.	.	8g#	.
.	.	8f#	.
.	.	8g#	.
=49	=49	=49	=49
4AA	4r	4a	8cc#
.	.	.	8ee
4r	4A	4r	8a
.	.	.	8ee
4r	4c#	8r	[4aa
.	.	8ee	.
=50	=50	=50	=50
2.r	4B	4dd	8aa]
.	.	.	8gg#
.	2A	4cc#	8r
.	.	.	8aa
.	.	[4ff#	8ff#
.	.	.	8aa
=51	=51	=51	=51
2.r	2G#	8ff#]	4.bb
.	.	8ff#	.
.	.	4ee	.
.	.	.	8bb
.	4B	4dd	8ff#
.	.	.	8gg#
=52	=52	=52	=52
2.r	4A	4cc#	8r
.	.	.	8ff#
.	2G#	4b	8r
.	.	.	8bb
.	.	[4ee	8ee
.	.	.	8gg#
=53	=53	=53	=53
2.r	2F#	8ee]	4.aa
.	.	8ee	.
.	.	[2dd#	.
.	.	.	8aa
.	4B	.	8ff#
.	.	.	8bb
=54	=54	=54	=54
2.r	4E	8dd#]	4gg#
.	.	8dd#	.
.	[2A	4.cc#	8r
.	.	.	8ee
.	.	.	4aa
.	.	8ff#	.
=55	=55	=55	=55
2.r	4A]	4b	8dd#
.	.	.	4bb
.	8G#	[2ee	.
.	8F#	.	8aa
.	4G#	.	8gg#
.	.	.	8ff#
=56	=56	=56	=56
2.r	4c#	4.ee]	8ee
.	.	.	8gg#
.	4.F#	.	2aa
.	.	8ff#	.
.	.	4dd#	.
.	8B	.	.
=57	=57	=57	=57
2.r	8E	4ee	4gg#
.	8e	.	.
.	8c#	4e	8r
.	8A	.	8aa
.	4d	4f#	8ff#
.	.	.	8dd
=58	=58	=58	=58
2.r	4c#	4e	8aa
.	.	.	8a
.	4F#	2d	8r
.	.	.	8a
.	[4B	.	8f#
.	.	.	8g#
=59	=59	=59	=59
2.r	8B]	2c#	4a
.	8B	.	.
.	4A	.	8r
.	.	.	8ee
.	4G#	4e	8b
.	.	.	8g#
=60	=60	=60	=60
2.r	4F#	4d	8a
.	.	.	8ff#
.	4E	2c#	8gg#
.	.	.	8ee
.	[4A	.	8ff#
.	.	.	8cc#
=61	=61	=61	=61
2.r	4.A]	2B	8dd
.	.	.	8ff#
.	.	.	4.b
.	8A	.	.
.	[4G#	4e	.
.	.	.	8dd
=62	=62	=62	=62
2.r	4G#]	4A	8cc#
.	.	.	8ee
.	4F#	[2d	8a
.	.	.	8cc#
.	4B	.	8b
.	.	.	8dd
=63	=63	=63	=63
2.r	4E	4d]	8g#
.	.	.	8b
.	[2A	8c#	4.e
.	.	8B	.
.	.	4c#	.
.	.	.	8ee
=64	=64	=64	=64
2.r	2A]	4f#	8dd
.	.	.	8cc#
.	.	2B	8dd
.	.	.	8ff#
.	4G#	.	8ee
.	.	.	8dd
=65	=65	=65	=65
2.r	8A	4A	4cc#
.	8AA	.	.
.	8C#	4r	4ee
.	8A	.	.
.	8D	4r	4ff#
.	8A	.	.
=66	=66	=66	=66
2.r	8C#	2.r	4ee
.	8A	.	.
.	8BB	.	2dd
.	8G#	.	.
.	8F#	.	.
.	8G#	.	.
=67	=67	=67	=67
2.r	8A	4r	2cc#
.	8AA	.	.
.	8C#	4e	.
.	8E	.	.
.	8DD	4f#	4dd
.	8D	.	.
=68	=68	=68	=68
2.r	8A	4e	4cc#
.	8a	.	.
.	8B	2d	2b
.	8a	.	.
.	8e	.	.
.	8g#	.	.
=69	=69	=69	=69
2.r	8F#	4c#	4a
.	8f#	.	.
.	8e	4r	4a
.	8d	.	.
.	8c#	4a	4cc#
.	8d	.	.
=70	=70	=70	=70
2.r	8e	4g#	4b
.	8E	.	.
.	8e	4c#	2a
.	8f#	.	.
.	8e	[4f#	.
.	8d#	.	.
=71	=71	=71	=71
2.r	8e	4f#]	2g#
.	8B	.	.
.	8e	4e	.
.	8f#	.	.
.	8g#	4d	4b
.	8e	.	.
=72	=72	=72	=72
2.r	8a	4c#	4a
.	8f#	.	.
.	8g#	4B	2g#
.	8f#	.	.
.	8g#	[4e	.
.	8a	.	.
=73	=73	=73	=73
2.r	8B	4e]	2f#
.	8A	.	.
.	8B	[2d#	.
.	8c#	.	.
.	8A	.	4b
.	8B	.	.
=74	=74	=74	=74
2.r	8c#	4d#]	4e
.	8B	.	.
.	8A	4c#	[2a
.	8G#	.	.
.	8F#	4f#	.
.	8E	.	.
=75	=75	=75	=75
2.r	8D#	4B	4a]
.	8F#	.	.
.	8E	[2e	8g#
.	8D#	.	8f#
.	8C#	.	[4g#
.	8BB	.	.
=76	=76	=76	=76
2.r	4AA	2e_	8g#]
.	.	.	8cc#
.	8BB	.	2f#
.	8AA	.	.
.	4BB	8e]	.
.	.	8d#	.
=77	=77	=77	=77
4r	4EE	4.e	8e
.	.	.	8b
4E	4r	.	4.ee
.	.	8g#	.
4F#	4A	4a	.
.	.	.	[8dd
=78	=78	=78	=78
4E	4G#	8r	8dd]
.	.	8e	8cc#
2D	4F#	4a	8r
.	.	.	8ff#
.	[4B	4r	8dd
.	.	.	8b
=79	=79	=79	=79
2C#	4B]	8r	4ee
.	.	8e	.
.	4A	4a	8r
.	.	.	8ee
4E	4G#	4r	8b
.	.	.	[8cc#
=80	=80	=80	=80
4D	4F#	8r	8cc#]
.	.	8d	8b
2C#	4E	4a	8r
.	.	.	8ee
.	[4A	4r	8cc#
.	.	.	8a
=81	=81	=81	=81
2BB	4A]	8r	4dd
.	.	8f#	.
.	[2G#	2b	8r
.	.	.	8cc#
4E	.	.	8dd
.	.	.	8ee
=82	=82	=82	=82
4AA	8G#]	4a	2cc#
.	8G	.	.
[2D	4F#	8r	.
.	.	8f#	.
.	4B	8g#	4b
.	.	8a	.
=83	=83	=83	=83
4D]	4E	4g#	8r
.	.	.	8b
8C#	[2A	[2e	8cc#
8BB	.	.	8dd
4C#	.	.	8ee
.	.	.	8cc#
=84	=84	=84	=84
4F#	2A_	8e]	4a
.	.	8f#	.
2BB	.	4d	8b
.	.	.	8cc#
.	8A]	4b	[4dd
.	8G#	.	.
=85	=85	=85	=85
[2.AA	4A	8e	8dd]
.	.	4a	8cc#
.	8B	.	8dd
.	8c#	8g	8ee
.	[4d	8f#	4ff#
.	.	8g#	.
=86	=86	=86	=86
4AA]	8d]	8a	8ee
.	8c#	4cc#	4aa
8BB	8d	.	.
8C#	8e	8b	8gg#
4D	4f#	8a	4ff#
.	.	8b	.
=87	=87	=87	=87
4C#	2g#	8cc#	4ee#
.	.	8dd	.
8D#	.	8cc#	8ff#
8E#	.	8b	8gg#
4F#	8f#	4a	4cc#
.	8e	.	.
=88	=88	=88	=88
4BB	4d	4.g#	8b
.	.	.	8cc#
2C#	4c#	.	4.a
.	.	8f#	.
.	4B	4e#	.
.	.	.	8g#
=89	=89	=89	=89
4.FF#	4A	4f#	4f#
.	4c#	4r	4a
8F#	.	.	.
8BB	4d	4r	4b
8F#	.	.	.
=90	=90	=90	=90
8FF#	4c#	2.r	4a
8F#	.	.	.
8GG#	2B	.	4d#
8F#	.	.	.
8E#	.	.	[4g#
8C#	.	.	.
=91	=91	=91	=91
8F#	2A	2.r	4g#]
8FF#	.	.	.
8r	.	.	4f#
8F#	.	.	.
8AA#	4c#	.	4e
8F#	.	.	.
=92	=92	=92	=92
8BB	4B	2.r	4d
8F#	.	.	.
8FF#	2A	.	4c#
8F#	.	.	.
8D	.	.	[4f#
8F#	.	.	.
=93	=93	=93	=93
8BB	2G#	2.r	4f#]
8D	.	.	.
8C#	.	.	[2e
8D	.	.	.
8BB	4c#	.	.
8C#	.	.	.
=94	=94	=94	=94
8AA#	4F#	2.r	4e]
8C#	.	.	.
8BB	[2B	.	4d#
8G#	.	.	.
8F#	.	.	4g#
8G#	.	.	.
=95	=95	=95	=95
8E#	4B]	2.r	4c#
8G#	.	.	.
4F#	8A	.	[2f#
.	8G#	.	.
8D	4A	.	.
8F#	.	.	.
=96	=96	=96	=96
8BB	4d	2.r	2f#]
8D	.	.	.
8C#	2G#	.	.
8D	.	.	.
8BB	.	.	4e#
8C#	.	.	.
=97	=97	=97	=97
4FF#	4A#	2.r	8f#
.	.	.	8ff#
4r	4c#	.	8a#
.	.	.	8cc#
4r	4d	.	8b
.	.	.	8dd
=98	=98	=98	=98
8r	[2.e	2.r	[2.cc#
8c#	.	.	.
8A#	.	.	.
8c#	.	.	.
8F#	.	.	.
8A#	.	.	.
=99	=99	=99	=99
[2.BB	8e]	2.r	8cc#]
.	8f#	.	8dd
.	8d	.	8b
.	8e	.	8cc#
.	8c#	.	8a#
.	8e	.	8cc#
=100	=100	=100	=100
8BB]	[2.d	2.r	[2.b
8B	.	.	.
8G	.	.	.
8A	.	.	.
8F#	.	.	.
8G	.	.	.
=101	=101	=101	=101
2.E	8d]	2.r	8b]
.	8f#	.	8dd
.	8e	.	8cc#
.	8f#	.	8dd
.	8d	.	8b
.	8e	.	8cc#
=102	=102	=102	=102
4F#	8c#	2f#	8a#
.	8d	.	8b
4r	8B	.	8g#
.	8d	.	8b
4E	4c#	4g	8a#
.	.	.	8cc#
=103	=103	=103	=103
4D	8d	4f#	4b
.	4B	.	.
4C#	.	2e	[2cc#
.	8c#	.	.
4F#	8B	.	.
.	8A#	.	.
=104	=104	=104	=104
4.BB	[2B	2d	8cc#]
.	.	.	8cc#
.	.	.	8b
8C#	.	.	8a#
4D	8B]	4f#	[4b
.	8A	.	.
=105	=105	=105	=105
4E	4G	4e	8b]
.	.	.	8a#
2BB	4F#	2d	8b
.	.	.	8cc#
.	[4B	.	8dd
.	.	.	8ee
=106	=106	=106	=106
4.F#	8B]	2c#	2.ff#
.	8B	.	.
.	4A#	.	.
8E	.	.	.
4D	8B	4f#	.
.	8A	.	.
=107	=107	=107	=107
2E	2G	4B	8ee
.	.	.	8dd
.	.	[2e	8cc#
.	.	.	8dd
4C#	8c#	.	8ee
.	8B	.	8dd
=108	=108	=108	=108
2D	4A#	4e]	8cc#
.	.	.	8dd
.	4F#	8d	8b
.	.	8c#	8a#
4DD	[4B	4d	8b
.	.	.	8dd
=109	=109	=109	=109
4EE	2B]	4g	8cc#
.	.	.	8dd
2FF#	.	2c#	8ee
.	.	.	8gg
.	4A#	.	8ff#
.	.	.	8ee
=110	=110	=110	=110
4BB	4B	8B	8dd
.	.	8c#	8ee
4r	4F#	8d	8ff#
.	.	8f#	8aa
4r	4G	8e	8gg
.	.	8d	8ff#
=111	=111	=111	=111
2.r	8A	4c#	4ee
.	8B	.	.
.	8c#	8ee	[2aa
.	8e	8gg	.
.	8d	8ff#	.
.	8c#	8ee	.
=112	=112	=112	=112
2.r	4B	8dd	4aa]
.	.	8cc#	.
.	4e	8b	[2gg
.	.	8ff#	.
.	4E	8ee	.
.	.	8dd	.
=113	=113	=113	=113
2.r	4A	8cc#	4.gg]
.	.	8b	.
.	4c#	[4a	.
.	.	.	8gg
.	4d	8a]	8ff#
.	.	8f#	8aa
=114	=114	=114	=114
2.r	4G	8e	8bb
.	.	[8d	8ee
.	2A	4d]	4.eeT
.	.	4c#	.
.	.	.	8dd
=115	=115	=115	=115
2.r	8D	4d	4dd
.	8d	.	.
.	8F#	4r	4aa
.	8d	.	.
.	8G	4r	4bb
.	8d	.	.
=116	=116	=116	=116
2.r	8F#	2.r	4aa
.	8d	.	.
.	8E	.	2gg
.	8c#	.	.
.	8B	.	.
.	8c#	.	.
=117	=117	=117	=117
2.r	8d	4r	2ff#
.	8A	.	.
.	8F#	4dd	.
.	8A	.	.
.	8D	4ff#	4aa
.	8d	.	.
=118	=118	=118	=118
2.r	8e	4ee	4gg
.	8E	.	.
.	8F#	[2dd	2ff#
.	8e	.	.
.	8f#	.	.
.	8g	.	.
=119	=119	=119	=119
2.r	8a	4dd]	2ee
.	8b	.	.
.	8a	[2cc#	.
.	8g	.	.
.	8f#	.	4aa
.	8a	.	.
=120	=120	=120	=120
2.r	8b	4cc#]	4dd
.	8a	.	.
.	8g	4b	[2gg
.	8f#	.	.
.	8e	4ee	.
.	8d	.	.
=121	=121	=121	=121
2.r	8c#	4a	4gg]
.	8B	.	.
.	8A	4cc#	8ff#
.	8G	.	8ee
.	8F#	8dd	8ff#
.	8E	8ee	8gg
=122	=122	=122	=122
2.r	8D	8ff#	8aa
.	8G	4dd	8bb
.	4A	.	4.ee
.	.	8b	.
.	4AA	4cc#	.
.	.	.	8dd
=123	=123	=123	=123
2.r	4D	4dd	8dd
.	.	.	8a
.	4r	4d	8dd
.	.	.	8cc#
.	4DD	4f#	8b
.	.	.	8a
=124	=124	=124	=124
2.r	8EE	4e	4g#
.	8E	.	.
.	8F#	2d	4.a
.	8E	.	.
.	8F#	.	.
.	8G#	.	[8b
=125	=125	=125	=125
2.r	[2A	2c#	8b]
.	.	.	8e
.	.	.	8a
.	.	.	8b
.	8A]	4e	[4cc#
.	8A	.	.
=126	=126	=126	=126
2.r	8B	4d	8cc#]
.	8BB	.	4b
.	8C#	2c#	.
.	8BB	.	8e
.	8C#	.	[4a
.	8D	.	.
=127	=127	=127	=127
2.r	[2.E	2B	8a]
.	.	.	8a
.	.	.	8g#
.	.	.	8f#
.	.	4e	8g#
.	.	.	8a
=128	=128	=128	=128
2.r	8E]	4A	2f#
.	8E	.	.
.	8D	[2d	.
.	8C#	.	.
.	8D	.	[4b
.	8E	.	.
=129	=129	=129	=129
2.r	4C#	4d]	8b]
.	.	.	8b
.	4.F#	8c#	8a
.	.	8B	8g#
.	.	4c#	8a
.	8E	.	8cc#
=130	=130	=130	=130
2.r	4D	4f#	8b
.	.	.	8a
.	4E	[2B	8g#
.	.	.	8ff#
.	4G#	.	8ee
.	.	.	8dd
=131	=131	=131	=131
2.r	[2A	8B]	[2.cc#
.	.	8b	.
.	.	8a	.
.	.	8g#	.
.	8A]	[4a	.
.	8A	.	.
=132	=132	=132	=132
2.r	[2.e	8a]	8cc#]
.	.	8a	8cc#
.	.	8g#	8b
.	.	8f#	8a
.	.	4g#	8b
.	.	.	8cc#
=133	=133	=133	=133
2.r	2e_	8f#	4a
.	.	8g#	.
.	.	8a	8ff#
.	.	8g#	8gg#
.	8e]	4f#	[4aa
.	8d#	.	.
=134	=134	=134	=134
2.r	4e	4.b	8aa]
.	.	.	8aa
.	4B	.	8gg#
.	.	8a	8ff#
.	8c#	[4g#	[4ee
.	8G#	.	.
=135	=135	=135	=135
2.r	4A	8g#]	8ee]
.	.	8b	8gg#
.	4F#	8a	8ff#
.	.	8g#	8ee
.	4B	8f#	4dd#
.	.	8a	.
=136	=136	=136	=136
2.r	8E	4g#	4ee
.	8e	.	.
.	8G#	4b	4r
.	8e	.	.
.	8A	4cc#	4r
.	8e	.	.
=137	=137	=137	=137
4r	8G#	4b	2.r
.	8e	.	.
4D#	8F#	2a	.
.	8d#	.	.
4F#	8c#	.	.
.	8d#	.	.
=138	=138	=138	=138
4E	8e	2g#	2.r
.	8G#	.	.
2D	8B	.	.
.	8e	.	.
.	8G#	4b	.
.	8B	.	.
=139	=139	=139	=139
2C#	8E	4a	2.r
.	8D	.	.
.	8E	2g#	.
.	8F#	.	.
4E	8G#	.	.
.	8E	.	.
=140	=140	=140	=140
4D	8A	2f#	2.r
.	8G#	.	.
2C#	8A	.	.
.	8B	.	.
.	8c#	4a	.
.	8A	.	.
=141	=141	=141	=141
2BB	8d	4d	2.r
.	8c#	.	.
.	8B	[2g#	.
.	8A	.	.
4E	8B	.	.
.	8d	.	.
=142	=142	=142	=142
4AA	8c#	4g#]	2.r
.	8B	.	.
[2D	8A	8f#	.
.	8G#	8e	.
.	8A	4f#	.
.	8B	.	.
=143	=143	=143	=143
4D]	8G#	4b	2.r
.	8E	.	.
8C#	8A	4.e	.
8BB	8G#	.	.
4C#	[4A	.	.
.	.	8d	.
=144	=144	=144	=144
4F#	2A]	8c#	2.r
.	.	8e	.
2BB	.	8d	.
.	.	8c#	.
.	4G#	8d	.
.	.	8e	.
=145	=145	=145	=145
2AA	8A	4c#	4r
.	8B	.	.
.	4c#	8r	4ee
.	.	8e	.
4A	8r	4a	4ff#
.	8c#	.	.
=146	=146	=146	=146
4G#	4B	8r	4ee
.	.	8b	.
4F#	8f#	8a	2dd
.	8a	8cc#	.
[4B	8g#	8b	.
.	8f#	8a	.
=147	=147	=147	=147
4B]	8e	4g#	2cc#
.	8c#	.	.
4A	4f#	8r	.
.	.	8a	.
4G#	8r	4b	4ee
.	8B	.	.
=148	=148	=148	=148
4F#	4A	8r	4dd
.	.	8a	.
4E	8e	8g#	2cc#
.	8g#	8b	.
[4A	8f#	8a	.
.	8e	8g#	.
=149	=149	=149	=149
4A]	8d	4f#	2b
.	8B	.	.
[2G#	4e	8g#	.
.	.	8a	.
.	8r	4b	4ee
.	8B	.	.
=150	=150	=150	=150
4G#]	4c#	8r	4a
.	.	8e	.
4F#	4A	8f#	[2dd
.	.	8g#	.
4B	8r	8a	.
.	8f#	8b	.
=151	=151	=151	=151
4E	8e	4g#	4dd]
.	8f#	.	.
[2A	8e	8a	8cc#
.	8d	8g#	8b
.	4e	8a	4cc#
.	.	8g#	.
=152	=152	=152	=152
2A]	8d	4f#	4ff#
.	8c#	.	.
.	4.d	8r	2b
.	.	8f#	.
4G#	.	[4e	.
.	8d	.	.
=153	=153	=153	=153
[2A	8c#	4e]	8a
.	8c#	.	8ee
.	8d	4r	8ff#
.	8e	.	8gg#
8A]	[4f#	8r	[4aa
8G#	.	8b	.
=154	=154	=154	=154
8A	4f#]	8cc#	4aa]
8B	.	8dd	.
2c#	8e	[2ee	[2gg#
.	8f#	.	.
.	8g#	.	.
.	8a	.	.
=155	=155	=155	=155
8G#	2b	4.ee]	4gg#]
8A	.	.	.
2B	.	.	[2ff#
.	.	8cc#	.
.	8f#	[4dd	.
.	8g#	.	.
=156	=156	=156	=156
8F#	[2a	4.dd]	4ff#]
8G#	.	.	.
2A	.	.	[2ee
.	.	8b	.
.	8a]	[4cc#	.
.	8e	.	.
=157	=157	=157	=157
[2D	4.f#	8cc#]	4ee]
.	.	8a	.
.	.	[2b	[2dd
.	8e	.	.
8D]	[4f#	.	.
8E	.	.	.
=158	=158	=158	=158
4.F#	4.f#]	8b]	4dd]
.	.	8g#	.
.	.	[2a	[2cc#
8G#	8e#	.	.
8A	4f#	.	.
8B	.	.	.
=159	=159	=159	=159
4c#	4e	8a]	4.cc#]
.	.	8g#	.
2d	[2d	2f#	.
.	.	.	8cc#
.	.	.	8b
.	.	.	8a
=160	=160	=160	=160
2.e	8d]	[2.e	4g#
.	8d	.	.
.	8c#	.	8a
.	8B	.	8g#
.	8c#	.	8a
.	8d	.	8b
=161	=161	=161	=161
2E	4B	4e]	8g#
.	.	.	8b
.	4G#	8r	4ee
.	.	8e	.
4F#	8r	4a	[4dd
.	8A	.	.
=162	=162	=162	=162
4E	4e	4g#	8dd]
.	.	.	8cc#
2D	4A	8r	4ff#
.	.	8a	.
.	8r	4f#	[4bb
.	8B	.	.
=163	=163	=163	=163
2C#	4c#	8e	4bb]
.	.	8ee	.
.	8r	4cc#	4aa
.	8e	.	.
4E	8g#	8b	4gg#
.	8G#	8cc#	.
=164	=164	=164	=164
4D	8A	4dd	4ff#
.	8B	.	.
2C#	8c#	8a	4ee
.	8d	8b	.
.	4e	8cc#	[4aa
.	.	8a	.
=165	=165	=165	=165
2BB	4f#	8dd	4aa]
.	.	8ee	.
.	4d	8dd	[2gg#
.	.	8cc#	.
4E	[4e	8b	.
.	.	8dd	.
=166	=166	=166	=166
4AA	4e]	8cc#	4gg#]
.	.	8b	.
[2D	8f#	8a	4ff#
.	8e	8g#	.
.	8d	4f#	4bb
.	8c#	.	.
=167	=167	=167	=167
4D]	4B	8g#	4ee
.	.	8f#	.
8C#	4.c#	8e	[2aa
8BB	.	8d	.
4C#	.	[4e	.
.	8B	.	.
=168	=168	=168	=168
4F#	4A	8e]	2aa]
.	.	8e	.
4BB	2B	8d	.
.	.	8c#	.
4E	.	8d	4gg#
.	.	8e	.
=169	=169	=169	=169
4AA	2.A	4c#	8aa
.	.	.	8gg#
4BB	.	4d	8ff#
.	.	.	8ee
4C#	.	4e	8dd
.	.	.	8cc#
=170	=170	=170	=170
4D	4F#	2.d	8ff#
.	.	.	8ee
4E	4G#	.	8dd
.	.	.	8cc#
4F#	4A	.	8b
.	.	.	8a
=171	=171	=171	=171
2.E	4.B	8r	4.g#
.	.	8f#	.
.	.	4e	.
.	8d	.	8g#
.	8c#	8f#	8a
.	8B	8g#	8b
=172	=172	=172	=172
[2.EE	8A	8a	8cc#
.	8E 8G#	8b	8dd
.	8D 8F#	8cc#	8ee
.	8C# 8E	8dd	8ff#
.	8BB 8D	8ee	8gg#
.	8AA 8C#	[8ff#	8aa
=173	=173	=173	=173
2.EE_	2GG# 2BB	8ff#]	[2bb
.	.	8ff#	.
.	.	8ee	.
.	.	8dd	.
.	4AA	4cc#	8bb]
.	.	.	8aa 8D#
=174	=174	=174	=174
2.EE_	4BB 4E	4b	8r
.	.	.	8gg#
.	4C# 4E	4a	8r
.	.	.	8gg#
.	4D# 4F#	4a	8r
.	.	.	8ff#
=175	=175	=175	=175
2.EE_	4E 4G#	4g#	8r
.	.	.	8ee
.	4F# 4A	4f#	8r
.	.	.	8ee
.	4G# 4B	4e	8r
.	.	.	8dd
=176	=176	=176	=176
2.EE_	4A 4c#	4e	8r
.	.	.	8cc#
.	4G# 4c#	4e	8r
.	.	.	8b
.	4F# 4d#	4f#	8r
.	.	.	8a
=177	=177	=177	=177
8EE]	4B 4e	4e	4g#
8e	.	.	.
8B	4r	4r	4r
8A	.	.	.
8G#	4r	4r	4r
8B	.	.	.
=178	=178	=178	=178
8E	2.r	2.r	2.r
8G#	.	.	.
8B	.	.	.
8E	.	.	.
8GG#	.	.	.
8BB	.	.	.
=179	=179	=179	=179
[2.EE	8r	4r	8r
.	8EE	.	8ee
.	8FF#	4f# 4a	8r
.	8GG#	.	8dd
.	8AA	4e 4g#	8r
.	8BB	.	8cc#
=180	=180	=180	=180
2.EE]	8C#	4d 4f#	8r
.	8BB	.	8b
.	8C#	4c# 4e	8r
.	8D	.	8a
.	4E	4B 4d	8r
.	.	.	8g#
=181	=181	=181	=181
4DD#	4F#	4A 4c	8r
.	.	.	8a
2EE	2E	4E 4B	8r
.	.	.	8d
.	.	4B 4d	8a
.	.	.	8g#
=182	=182	=182	=182
8AA	8E	8A 8c#	8a
8r	8r	8r	8r
4r	4r	4r	4r
4r	4r	4r	4r
==	==	==	==
*-	*-	*-	*-
!!!ENC: Peter van Kranenburg (peter@musical-style-recognition.net)
!!!END: 2006-11-9
